src/Assets/icons/04-image/image-icon.svg

<svg viewBox="0 0 2000 2000" xmlns="http://www.w3.org/2000/svg" xml:space="preserve" style="fill-rule:evenodd;clip-rule:evenodd;stroke-linejoin:round;stroke-miterlimit:2">
    <g transform="matrix(2.36128 0 0 1.7452 -1303.42 -719.023)">
        <path d="M1399 457.84c0-25.3-15.18-45.84-33.88-45.84H585.88c-18.699 0-33.88 20.54-33.88 45.84v1054.32c0 25.3 15.181 45.84 33.88 45.84h779.24c18.7 0 33.88-20.54 33.88-45.84V457.84Z" style="fill:#e6e6e6"/>
        <clipPath id="a">
            <path d="M1399 457.84c0-25.3-15.18-45.84-33.88-45.84H585.88c-18.699 0-33.88 20.54-33.88 45.84v1054.32c0 25.3 15.181 45.84 33.88 45.84h779.24c18.7 0 33.88-20.54 33.88-45.84V457.84Z"/>
        </clipPath>
        <g clip-path="url(#a)">
            <g transform="matrix(.4235 0 0 .573 552 412)">
                <path style="fill:none" d="M0 0h2000v2000H0z"/>
                <clipPath id="b">
                    <path d="M0 0h2000v2000H0z"/>
                </clipPath>
                <g clip-path="url(#b)">
                    <path d="M1399 457.84c0-25.3-15.18-45.84-33.88-45.84H585.88c-18.699 0-33.88 20.54-33.88 45.84v1054.32c0 25.3 15.181 45.84 33.88 45.84h779.24c18.7 0 33.88-20.54 33.88-45.84V457.84Z" style="fill:#e6e6e6" transform="matrix(2.36128 0 0 1.7452 -1303.42 -719.023)"/>
                    <path d="M670.769 1090C805.244 1061.38 1520 1610 1520 1610l-440 110-380-200s-150.667-404.15-29.231-430Z" style="fill:#172c4f" transform="matrix(1.79089 0 0 1.97006 -884.846 -1388.507)"/>
                    <path d="M639.385 1079.12C775.377 1054.62 1520 1610 1520 1610l-440 110-380-200s-189.805-417.6-60.615-440.88Z" style="fill:#172c4f" transform="matrix(1.98988 0 0 1.53228 -112.772 -635.506)"/>
                    <path d="M670.538 814.631C793.872 814.631 1180 1720 1180 1720H440s107.205-905.369 230.538-905.369Z" style="fill:#1f90e0" transform="matrix(1.72097 0 0 1.08464 5.546 134.419)"/>
                    <path d="M710.029 830C833.362 830 1180 1720 1180 1720H440s146.696-890 270.029-890Z" style="fill:#45a0e5" transform="matrix(1.54888 0 0 1.39454 -778.36 -398.606)"/>
                    <circle cx="635" cy="445" r="115" style="fill:#e4bc73" transform="matrix(1.61701 0 0 1.61701 -754.234 -462.265)"/>
                    <path d="M640 446.25h320c9.199 0 16.667-2.801 16.667-6.25s-7.468-6.25-16.667-6.25H640c-9.199 0-16.667 2.801-16.667 6.25s7.468 6.25 16.667 6.25Z" style="fill:#e4bc73" transform="matrix(0 .614 -3.81269 0 1950.157 91.524)"/>
                    <path d="M640 446.25h320c9.199 0 16.667-2.801 16.667-6.25s-7.468-6.25-16.667-6.25H640c-9.199 0-16.667 2.801-16.667 6.25s7.468 6.25 16.667 6.25Z" style="fill:#e4bc73" transform="rotate(45 1906.6 1161.53) scale(.61501 3.81271)"/>
                    <path d="M640 446.25h320c9.199 0 16.667-2.801 16.667-6.25s-7.468-6.25-16.667-6.25H640c-9.199 0-16.667 2.801-16.667 6.25s7.468 6.25 16.667 6.25Z" style="fill:#e4bc73" transform="matrix(.61373 0 0 3.81269 137.956 -1420.274)"/>
                </g>
            </g>
        </g>
    </g>
</svg>

<?xml version="1.0" encoding="UTF-8" standalone="no"?>
<!DOCTYPE svg PUBLIC "-//W3C//DTD SVG 1.1//EN" "http://www.w3.org/Graphics/SVG/1.1/DTD/svg11.dtd">
<svg width="100%" height="100%" viewBox="0 0 2000 2000" version="1.1" xmlns="http://www.w3.org/2000/svg" xmlns:xlink="http://www.w3.org/1999/xlink" xml:space="preserve" xmlns:serif="http://www.serif.com/" style="fill-rule:evenodd;clip-rule:evenodd;stroke-linejoin:round;stroke-miterlimit:2;">
    <g transform="matrix(2.36128,0,0,1.7452,-1303.42,-719.023)">
        <path d="M1399,457.84C1399,432.54 1383.82,412 1365.12,412L585.88,412C567.181,412 552,432.54 552,457.84L552,1512.16C552,1537.46 567.181,1558 585.88,1558L1365.12,1558C1383.82,1558 1399,1537.46 1399,1512.16L1399,457.84Z" style="fill:rgb(230,230,230);"/>
        <clipPath id="_clip1">
            <path d="M1399,457.84C1399,432.54 1383.82,412 1365.12,412L585.88,412C567.181,412 552,432.54 552,457.84L552,1512.16C552,1537.46 567.181,1558 585.88,1558L1365.12,1558C1383.82,1558 1399,1537.46 1399,1512.16L1399,457.84Z"/>
        </clipPath>
        <g clip-path="url(#_clip1)">
            <g id="bild-icon" transform="matrix(0.4235,0,0,0.573,552,412)">
                <rect x="0" y="0" width="2000" height="2000" style="fill:none;"/>
                <clipPath id="_clip2">
                    <rect x="0" y="0" width="2000" height="2000"/>
                </clipPath>
                <g clip-path="url(#_clip2)">
                    <g transform="matrix(2.36128,0,0,1.7452,-1303.42,-719.023)">
                        <path d="M1399,457.84C1399,432.54 1383.82,412 1365.12,412L585.88,412C567.181,412 552,432.54 552,457.84L552,1512.16C552,1537.46 567.181,1558 585.88,1558L1365.12,1558C1383.82,1558 1399,1537.46 1399,1512.16L1399,457.84Z" style="fill:rgb(230,230,230);"/>
                    </g>
                    <g id="Berge" transform="matrix(1.23985,0,0,1.36389,-427.479,-345.889)">
                        <g>
                            <g transform="matrix(1.44444,0,0,1.44444,-368.889,-764.444)">
                                <path d="M670.769,1090C805.244,1061.38 1520,1610 1520,1610L1080,1720L700,1520C700,1520 549.333,1115.85 670.769,1090Z" style="fill:rgb(23,44,79);"/>
                            </g>
                            <g transform="matrix(1.60494,0,0,1.12346,253.827,-212.346)">
                                <path d="M639.385,1079.12C775.377,1054.62 1520,1610 1520,1610L1080,1720L700,1520C700,1520 510.195,1102.4 639.385,1079.12Z" style="fill:rgb(23,44,79);"/>
                            </g>
                            <g transform="matrix(1.38805,0,0,0.795256,349.256,352.16)">
                                <path d="M670.538,814.631C793.872,814.631 1180,1720 1180,1720L440,1720C440,1720 547.205,814.631 670.538,814.631Z" style="fill:rgb(31,144,224);"/>
                            </g>
                            <g transform="matrix(1.24925,0,0,1.02247,-283.003,-38.6517)">
                                <path d="M710.029,830C833.362,830 1180,1720 1180,1720L440,1720C440,1720 586.696,830 710.029,830Z" style="fill:rgb(69,160,229);"/>
                            </g>
                        </g>
                    </g>
                    <g id="Sonne" transform="matrix(1.13619,0,0,1.13619,-336.744,-9.71674)">
                        <g transform="matrix(1.42319,0,0,1.42319,-367.447,-398.303)">
                            <circle cx="635" cy="445" r="115" style="fill:rgb(228,188,115);"/>
                        </g>
                        <g transform="matrix(-4.22704e-17,0.540409,-3.35568,-3.26886e-16,2012.78,89.1053)">
                            <path d="M640,446.25L960,446.25C969.199,446.25 976.667,443.449 976.667,440C976.667,436.551 969.199,433.75 960,433.75L640,433.75C630.801,433.75 623.333,436.551 623.333,440C623.333,443.449 630.801,446.25 640,446.25Z" style="fill:rgb(228,188,115);"/>
                        </g>
                        <g transform="matrix(0.382752,0.382752,-2.37283,2.37283,1510.75,-878.599)">
                            <path d="M640,446.25L960,446.25C969.199,446.25 976.667,443.449 976.667,440C976.667,436.551 969.199,433.75 960,433.75L640,433.75C630.801,433.75 623.333,436.551 623.333,440C623.333,443.449 630.801,446.25 640,446.25Z" style="fill:rgb(228,188,115);"/>
                        </g>
                        <g transform="matrix(0.540161,7.5711e-17,-2.0428e-16,3.35568,417.8,-1241.48)">
                            <path d="M640,446.25L960,446.25C969.199,446.25 976.667,443.449 976.667,440C976.667,436.551 969.199,433.75 960,433.75L640,433.75C630.801,433.75 623.333,436.551 623.333,440C623.333,443.449 630.801,446.25 640,446.25Z" style="fill:rgb(228,188,115);"/>
                        </g>
                    </g>
                </g>
            </g>
        </g>
    </g>
</svg>
